images/undomerge-revert2.svg

<?xml version="1.0"?>
<svg xmlns="http://www.w3.org/2000/svg" xmlns:xlink="http://www.w3.org/1999/xlink" width="821px" height="265px" viewBox="0 0 821 265" version="1.1">
    <!-- Generator: Sketch 56.3 (81716) - https://sketch.com -->
    <title>images/undomerge-revert2</title>
    <desc>Created with Sketch.</desc>
    <g id="07---Undo-Merge-(revert-2)" stroke="none" stroke-width="1" fill="none" fill-rule="evenodd">
        <g id="brown" transform="translate(10.000000, 116.000000)">
            <rect id="Rectangle-1" fill="#EFEFE7" fill-rule="evenodd" x="0" y="0" width="89" height="33" rx="16.5"/>
            <text stroke="none" font-family="Source Code Pro" font-size="12px" font-weight="900" fill="#979797" fill-opacity="1" text-anchor="middle" id="C6">
                <tspan fill="#808080" x="44.5" y="21" fill-opacity="1">C1</tspan>
            </text>
        </g>
        <path id="Line-2" d="M457.755736,168.72369 L501.569594,132.796326 L502.203674,133.569594 L458.389816,169.496957 L460.926134,172.590029 L451.113366,174.81704 L455.219418,165.630618 L457.755736,168.72369 Z" fill="#8F8981" fill-rule="nonzero"/>
        <path id="Line-3" d="M219.379261,149.517547 L264.203819,186.431889 L263.568111,187.203819 L218.743553,150.289477 L216.200724,153.377198 L212.114035,144.182146 L221.92209,146.429826 L219.379261,149.517547 Z" fill="#8F8981" fill-rule="nonzero"/>
        <g id="Line-+-brown-2" transform="translate(99.000000, 116.000000)">
            <path id="Line" d="M9,17 L46,17 L46,18 L9,18 L9,22 L-2.77555756e-16,17.5 L9,13 L9,17 Z" fill="#8F8981" fill-rule="nonzero"/>
            <g id="brown" transform="translate(30.000000, 0.000000)">
                <rect id="Rectangle-1" fill="#EFEFE7" fill-rule="evenodd" x="0" y="0" width="89" height="33" rx="16.5"/>
                <text stroke="none" font-family="Source Code Pro" font-size="12px" font-weight="900" fill="#979797" fill-opacity="1" text-anchor="middle" id="C6">
                    <tspan fill="#808080" x="44.5" y="21" fill-opacity="1">C2</tspan>
                </text>
            </g>
        </g>
        <g id="Line-+-brown-3" transform="translate(218.000000, 116.000000)">
            <path id="Line" d="M9,17 L46,17 L46,18 L9,18 L9,22 L-2.77555756e-16,17.5 L9,13 L9,17 Z" fill="#8F8981" fill-rule="nonzero"/>
            <g id="brown" transform="translate(30.000000, 0.000000)">
                <rect id="Rectangle-1" fill="#EFEFE7" fill-rule="evenodd" x="0" y="0" width="89" height="33" rx="16.5"/>
                <text stroke="none" font-family="Source Code Pro" font-size="12px" font-weight="900" fill="#979797" fill-opacity="1" text-anchor="middle" id="C6">
                    <tspan fill="#808080" x="44.5" y="21" fill-opacity="1">C5</tspan>
                </text>
            </g>
        </g>
        <g id="brown" transform="translate(248.000000, 169.000000)">
            <rect id="Rectangle-1" fill="#EFEFE7" fill-rule="evenodd" x="0" y="0" width="89" height="33" rx="16.5"/>
            <text stroke="none" font-family="Source Code Pro" font-size="12px" font-weight="900" fill="#979797" fill-opacity="1" text-anchor="middle" id="C6">
                <tspan fill="#808080" x="44.5" y="21" fill-opacity="1">C3</tspan>
            </text>
        </g>
        <path id="Line-6" d="M346,186 L383,186 L383,187 L346,187 L346,191 L337,186.5 L346,182 L346,186 Z" fill="#8F8981" fill-rule="nonzero"/>
        <g id="brown" transform="translate(367.000000, 169.000000)">
            <rect id="Rectangle-1" fill="#EFEFE7" fill-rule="evenodd" x="0" y="0" width="89" height="33" rx="16.5"/>
            <text stroke="none" font-family="Source Code Pro" font-size="12px" font-weight="900" fill="#979797" fill-opacity="1" text-anchor="middle" id="C6">
                <tspan fill="#808080" x="44.5" y="21" fill-opacity="1">C4</tspan>
            </text>
        </g>
        <g id="Line-+-brown-4" transform="translate(337.000000, 116.000000)">
            <path id="Line" d="M9,17 L46,17 L46,18 L9,18 L9,22 L-2.77555756e-16,17.5 L9,13 L9,17 Z" fill="#8F8981" fill-rule="nonzero"/>
            <g id="brown" transform="translate(30.000000, 0.000000)">
                <rect id="Rectangle-1" fill="#EFEFE7" fill-rule="evenodd" x="0" y="0" width="89" height="33" rx="16.5"/>
                <text stroke="none" font-family="Source Code Pro" font-size="12px" font-weight="900" fill="#979797" fill-opacity="1" text-anchor="middle" id="C6">
                    <tspan fill="#808080" x="44.5" y="21" fill-opacity="1">C6</tspan>
                </text>
            </g>
        </g>
        <path id="Line" d="M463,186 L500,186 L500,187 L463,187 L463,191 L454,186.5 L463,182 L463,186 Z" fill="#8F8981" fill-rule="nonzero"/>
        <g id="brown" transform="translate(484.000000, 169.000000)">
            <rect id="Rectangle-1" fill="#EFEFE7" fill-rule="evenodd" x="0" y="0" width="89" height="33" rx="16.5"/>
            <text stroke="none" font-family="Source Code Pro" font-size="12px" font-weight="900" fill="#979797" fill-opacity="1" text-anchor="middle" id="C6">
                <tspan fill="#808080" x="44.5" y="21" fill-opacity="1">C7</tspan>
            </text>
        </g>
        <path id="Line" d="M702,133 L739,133 L739,134 L702,134 L702,138 L693,133.5 L702,129 L702,133 Z" fill="#8F8981" fill-rule="nonzero"/>
        <path id="Line-9" d="M581.965445,184.583946 C618.131911,182.618837 651.353307,179.143792 668.283305,173.808278 C674.799106,171.754813 682.40047,168.350113 690.867145,163.805832 C695.941149,161.082484 701.252856,157.9886 706.732113,154.592946 C714.318098,149.891691 721.844569,144.853908 728.969373,139.816105 C731.463017,138.052901 733.7282,136.415735 735.722206,134.946653 C736.419893,134.432632 737.033779,133.976391 737.558527,133.583184 C737.873035,133.347514 738.087734,133.185385 738.197285,133.102051 L738.595234,132.799336 L739.200664,133.595234 L738.802715,133.897949 C738.69127,133.982724 738.474648,134.146306 738.158182,134.383443 C737.631303,134.778246 737.015251,135.236098 736.315356,135.751744 C734.316271,137.224569 732.045839,138.865528 729.546708,140.632612 C722.406442,145.681348 714.863579,150.730103 707.258886,155.442951 C701.762916,158.848963 696.433547,161.953135 691.340059,164.68694 C682.822854,169.258342 675.167703,172.687134 668.583883,174.762035 C651.53989,180.133475 618.278733,183.612562 582.014121,185.582776 L582.208964,189.580924 L573.000593,185.524338 L581.770884,180.591592 L581.965445,184.583946 Z" fill="#8F8981" fill-rule="nonzero"/>
        <g id="brown" transform="translate(723.000000, 116.000000)">
            <rect id="Rectangle-1" fill="#EFEFE7" fill-rule="evenodd" x="0" y="0" width="89" height="33" rx="16.5"/>
            <text stroke="none" font-family="Source Code Pro" font-size="12px" font-weight="900" fill="#979797" fill-opacity="1" text-anchor="middle" id="C6">
                <tspan fill="#808080" x="44.5" y="21" fill-opacity="1">C8</tspan>
            </text>
        </g>
        <g id="Line-7-+-brown-5" transform="translate(456.000000, 116.000000)">
            <path id="Line-7" d="M9,17 L46,17 L46,18 L9,18 L9,22 L-2.77555756e-16,17.5 L9,13 L9,17 Z" fill="#8F8981" fill-rule="nonzero"/>
            <g id="brown" transform="translate(30.000000, 0.000000)">
                <rect id="Rectangle-1" fill="#EFEFE7" fill-rule="evenodd" x="0" y="0" width="89" height="33" rx="16.5"/>
                <text stroke="none" font-family="Source Code Pro" font-size="12px" font-weight="900" fill="#979797" fill-opacity="1" text-anchor="middle" id="C6">
                    <tspan fill="#808080" x="44.5" y="21" fill-opacity="1">M</tspan>
                </text>
            </g>
        </g>
        <path id="Line-8" d="M583,133 L620,133 L620,134 L583,134 L583,138 L574,133.5 L583,129 L583,133 Z" fill="#8F8981" fill-rule="nonzero"/>
        <g id="brown" transform="translate(604.000000, 116.000000)">
            <rect id="Rectangle-1" fill="#EFEFE7" fill-rule="evenodd" x="0" y="0" width="89" height="33" rx="16.5"/>
            <text stroke="none" font-family="Source Code Pro" font-size="12px" font-weight="900" fill="#979797" fill-opacity="1" text-anchor="middle" id="C6">
                <tspan fill="#808080" x="44.5" y="21" fill-opacity="1">^M</tspan>
            </text>
        </g>
        <g id="Line-4-+-ref-+-Line-4-+-ref-2" transform="translate(725.000000, 10.000000)">
            <g id="Line-4-+-ref" transform="translate(0.000000, 53.000000)">
                <path id="Line-4" d="M43,44 L43,8 L44,8 L44,44 L48,44 L43.5,53 L39,44 L43,44 Z" fill="#8F8981" fill-rule="nonzero"/>
                <g id="ref">
                    <rect id="Rectangle-2" fill="#F44D27" fill-rule="evenodd" x="0" y="0" width="85.1962617" height="33"/>
                    <text stroke="none" font-family="Source Code Pro" font-size="12px" font-weight="900" fill="#979797" fill-opacity="1" text-anchor="middle" id="master">
                        <tspan fill="#f0f0f0" x="42.59813085" y="20" fill-opacity="1">master</tspan>
                    </text>
                </g>
            </g>
            <g id="Line-4-+-ref-2">
                <path id="Line-4" d="M43,44 L43,8 L44,8 L44,44 L48,44 L43.5,53 L39,44 L43,44 Z" fill="#8F8981" fill-rule="nonzero"/>
                <g id="symref">
                    <rect id="Rectangle-2" fill="#00909A" fill-rule="evenodd" x="0" y="0" width="86" height="33"/>
                    <text stroke="none" font-family="Source Code Pro" font-size="12px" font-weight="900" fill="#979797" fill-opacity="1" text-anchor="middle" id="master">
                        <tspan fill="#f0f0f0" x="43" y="20" fill-opacity="1">HEAD</tspan>
                    </text>
                </g>
            </g>
        </g>
        <g id="Line-5-+-ref-2" transform="translate(485.000000, 202.000000)">
            <path id="Line-5" d="M43,36 L43,0 L44,0 L44,36 L48,36 L43.5,45 L39,36 L43,36 Z" fill="#8F8981" fill-rule="nonzero"/>
            <g id="ref" transform="translate(0.000000, 20.000000)">
                <rect id="Rectangle-2" fill="#F44D27" fill-rule="evenodd" x="0" y="0" width="106" height="33"/>
                <text stroke="none" font-family="Source Code Pro" font-size="12px" font-weight="900" fill="#979797" fill-opacity="1" text-anchor="middle" id="master">
                    <tspan fill="#f0f0f0" x="53" y="20" fill-opacity="1">topic</tspan>
                </text>
            </g>
        </g>
    </g>
</svg>

<?xml version="1.0" encoding="UTF-8"?>
<svg id="svg31933" version="1.1" viewBox="0 0 821 265" xmlns="http://www.w3.org/2000/svg" xmlns:cc="http://creativecommons.org/ns#" xmlns:dc="http://purl.org/dc/elements/1.1/" xmlns:rdf="http://www.w3.org/1999/02/22-rdf-syntax-ns#">
 <metadata id="metadata31939">
  <rdf:RDF>
   <cc:Work rdf:about="">
    <dc:format>image/svg+xml</dc:format>
    <dc:type rdf:resource="http://purl.org/dc/dcmitype/StillImage"/>
    <dc:title>images/undomerge-revert2</dc:title>
   </cc:Work>
  </rdf:RDF>
 </metadata>
 <!-- Generator: Sketch 56.3 (81716) - https://sketch.com -->
 <title id="title31804">images/undomerge-revert2</title>
 <desc id="desc31806">Created with Sketch.</desc>
 <g id="07---Undo-Merge-(revert-2)" fill="none" fill-rule="evenodd">
  <g id="brown" transform="translate(10 116)">
   <rect id="Rectangle-1" width="89" height="33" rx="16.5" fill="#EFEFE7" fill-rule="evenodd"/>
   <text id="C6" fill="#979797" font-family="Source Code Pro" font-size="12px" font-weight="700" text-anchor="middle"><tspan id="tspan31809" x="44.5" y="21" fill="#808080">C1</tspan></text>
  </g>
  <path id="Line-2" d="m457.76 168.72 43.814-35.927.63408.77327-43.814 35.927 2.5363 3.0931-9.8128 2.227 4.1061-9.1864 2.5363 3.0931z" fill="#8F8981" fill-rule="nonzero"/>
  <path id="Line-3" d="m219.38 149.52 44.825 36.914-.63571.77193-44.825-36.914-2.5428 3.0877-4.0867-9.1951 9.8081 2.2477-2.5428 3.0877z" fill="#8F8981" fill-rule="nonzero"/>
  <g id="Line-+-brown-2" transform="translate(99 116)">
   <path id="Line" d="m9 17h37v1h-37v4l-9-4.5 9-4.5v4z" fill="#8F8981" fill-rule="nonzero"/>
   <g id="g31822" transform="translate(30)">
    <rect id="rect31816" width="89" height="33" rx="16.5" fill="#EFEFE7" fill-rule="evenodd"/>
    <text id="text31820" fill="#979797" font-family="Source Code Pro" font-size="12px" font-weight="700" text-anchor="middle"><tspan id="tspan31818" x="44.5" y="21" fill="#808080">C2</tspan></text>
   </g>
  </g>
  <g id="Line-+-brown-3" transform="translate(218 116)">
   <path id="path31825" d="m9 17h37v1h-37v4l-9-4.5 9-4.5v4z" fill="#8F8981" fill-rule="nonzero"/>
   <g id="g31833" transform="translate(30)">
    <rect id="rect31827" width="89" height="33" rx="16.5" fill="#EFEFE7" fill-rule="evenodd"/>
    <text id="text31831" fill="#979797" font-family="Source Code Pro" font-size="12px" font-weight="700" text-anchor="middle"><tspan id="tspan31829" x="44.5" y="21" fill="#808080">C5</tspan></text>
   </g>
  </g>
  <g id="g31842" transform="translate(248 169)">
   <rect id="rect31836" width="89" height="33" rx="16.5" fill="#EFEFE7" fill-rule="evenodd"/>
   <text id="text31840" fill="#979797" font-family="Source Code Pro" font-size="12px" font-weight="700" text-anchor="middle"><tspan id="tspan31838" x="44.5" y="21" fill="#808080">C3</tspan></text>
  </g>
  <path id="Line-6" d="m346 186h37v1h-37v4l-9-4.5 9-4.5v4z" fill="#8F8981" fill-rule="nonzero"/>
  <g id="g31851" transform="translate(367 169)">
   <rect id="rect31845" width="89" height="33" rx="16.5" fill="#EFEFE7" fill-rule="evenodd"/>
   <text id="text31849" fill="#979797" font-family="Source Code Pro" font-size="12px" font-weight="700" text-anchor="middle"><tspan id="tspan31847" x="44.5" y="21" fill="#808080">C4</tspan></text>
  </g>
  <g id="Line-+-brown-4" transform="translate(337 116)">
   <path id="path31853" d="m9 17h37v1h-37v4l-9-4.5 9-4.5v4z" fill="#8F8981" fill-rule="nonzero"/>
   <g id="g31861" transform="translate(30)">
    <rect id="rect31855" width="89" height="33" rx="16.5" fill="#EFEFE7" fill-rule="evenodd"/>
    <text id="text31859" fill="#979797" font-family="Source Code Pro" font-size="12px" font-weight="700" text-anchor="middle"><tspan id="tspan31857" x="44.5" y="21" fill="#808080">C6</tspan></text>
   </g>
  </g>
  <path id="path31864" d="m463 186h37v1h-37v4l-9-4.5 9-4.5v4z" fill="#8F8981" fill-rule="nonzero"/>
  <g id="g31872" transform="translate(484 169)">
   <rect id="rect31866" width="89" height="33" rx="16.5" fill="#EFEFE7" fill-rule="evenodd"/>
   <text id="text31870" fill="#979797" font-family="Source Code Pro" font-size="12px" font-weight="700" text-anchor="middle"><tspan id="tspan31868" x="44.5" y="21" fill="#808080">C7</tspan></text>
  </g>
  <path id="path31874" d="m702 133h37v1h-37v4l-9-4.5 9-4.5v4z" fill="#8F8981" fill-rule="nonzero"/>
  <path id="Line-9" d="m581.97 184.58c36.166-1.9651 69.388-5.4402 86.318-10.776 6.5158-2.0535 14.117-5.4582 22.584-10.002 5.074-2.7233 10.386-5.8172 15.865-9.2129 7.586-4.7013 15.112-9.739 22.237-14.777 2.4936-1.7632 4.7588-3.4004 6.7528-4.8695.69769-.51402 1.3116-.97026 1.8363-1.3635.31451-.23567.52921-.3978.63876-.48113l.39795-.30272.60543.7959-.39795.30272c-.11144.084775-.32807.24836-.64453.48549-.52688.3948-1.1429.85266-1.8428 1.3683-1.9991 1.4728-4.2695 3.1138-6.7686 4.8809-7.1403 5.0487-14.683 10.097-22.288 14.81-5.496 3.406-10.825 6.5102-15.919 9.244-8.5172 4.5714-16.172 8.0002-22.756 10.075-17.044 5.3714-50.305 8.8505-86.57 10.821l.19484 3.9981-9.2084-4.0566 8.7703-4.9327.19456 3.9924z" fill="#8F8981" fill-rule="nonzero"/>
  <g id="g31883" transform="translate(723 116)">
   <rect id="rect31877" width="89" height="33" rx="16.5" fill="#EFEFE7" fill-rule="evenodd"/>
   <text id="text31881" fill="#979797" font-family="Source Code Pro" font-size="12px" font-weight="700" text-anchor="middle"><tspan id="tspan31879" x="44.5" y="21" fill="#808080">C8</tspan></text>
  </g>
  <g id="Line-7-+-brown-5" transform="translate(456 116)">
   <path id="Line-7" d="m9 17h37v1h-37v4l-9-4.5 9-4.5v4z" fill="#8F8981" fill-rule="nonzero"/>
   <g id="g31892" transform="translate(30)">
    <rect id="rect31886" width="89" height="33" rx="16.5" fill="#EFEFE7" fill-rule="evenodd"/>
    <text id="text31890" fill="#979797" font-family="Source Code Pro" font-size="12px" font-weight="700" text-anchor="middle"><tspan id="tspan31888" x="44.5" y="21" fill="#808080">M</tspan></text>
   </g>
  </g>
  <path id="Line-8" d="m583 133h37v1h-37v4l-9-4.5 9-4.5v4z" fill="#8F8981" fill-rule="nonzero"/>
  <g id="g31902" transform="translate(604 116)">
   <rect id="rect31896" width="89" height="33" rx="16.5" fill="#EFEFE7" fill-rule="evenodd"/>
   <text id="text31900" fill="#979797" font-family="Source Code Pro" font-size="12px" font-weight="700" text-anchor="middle"><tspan id="tspan31898" x="44.5" y="21" fill="#808080">^M</tspan></text>
  </g>
  <g id="Line-4-+-ref-+-Line-4-+-ref-2" transform="translate(725 10)">
   <g id="Line-4-+-ref" transform="translate(0 53)">
    <path id="Line-4" d="m43 44v-36h1v36h4l-4.5 9-4.5-9h4z" fill="#8F8981" fill-rule="nonzero"/>
    <g id="ref">
     <rect id="Rectangle-2" width="85.196" height="33" fill="#F44D27" fill-rule="evenodd"/>
     <text id="master" fill="#979797" font-family="Source Code Pro" font-size="12px" font-weight="700" text-anchor="middle"><tspan id="tspan31906" x="42.59813085" y="20" fill="#f0f0f0">master</tspan></text>
    </g>
   </g>
   <g id="Line-4-+-ref-2">
    <path id="path31911" d="m43 44v-36h1v36h4l-4.5 9-4.5-9h4z" fill="#8F8981" fill-rule="nonzero"/>
    <g id="symref">
     <rect id="rect31913" width="86" height="33" fill="#00909A" fill-rule="evenodd"/>
     <text id="text31917" fill="#979797" font-family="Source Code Pro" font-size="12px" font-weight="700" text-anchor="middle"><tspan id="tspan31915" x="43" y="20" fill="#f0f0f0">HEAD</tspan></text>
    </g>
   </g>
  </g>
  <g id="Line-5-+-ref-2" transform="translate(485 202)">
   <path id="Line-5" transform="matrix(1 0 0 -1 -.1 45)" d="m43 36v-36h1v36h4l-4.5 9-4.5-9z" style="fill-rule:nonzero;fill:#8f8981"/>
   <g id="g31929" transform="translate(0 20)">
    <rect id="rect31923" transform="matrix(.83962 0 0 1 -1.1 0)" width="106" height="33" style="fill-rule:evenodd;fill:#f44d27"/>
    <text id="text31927" transform="translate(-9.5783 -.074)" font-size="12px" font-weight="700" style="fill:#979797;font-family:'Source Code Pro';font-size:12px;font-weight:700;text-anchor:middle"><tspan id="tspan31925" x="53" y="20" style="fill:#f0f0f0">topic</tspan></text>
   </g>
  </g>
 </g>
</svg>
